!!!OTL: ACH ACH ICH ARMES KLOSTERFRAEULEIN
!!!ARE: Europa, Mitteleuropa, Deutschland
!!!SCT: B0487
!!!YEM: Copyright 1995, estate of Helmut Schaffrath.
**kern
*ICvox
*Ivox
*M4/4
*k[f#]
*G:
{4b
=1
4.dd
8cc
8b
8a
8g
8a
=2
4b
4ee
4dd
8r}
{8dd
=3
8dd
8gg
8ff#
8ee
4dd
8cc#
8cc#
=4
2dd
4r}
{4dd
=5
4dd
8cc
8b
4dd
8cc
8b
=6
2ee
4dd}
{4cc
=7
4b
8b
8b
4a
8dd
8cc
=8
2b
4r}
{4b
=9
4dd
8cc
8b
4dd
8cc
8b
=10
2gg
4ff#}
{4ee
=11
4dd
8cc
8b
8a
8ee
8dd
8cc
=12
2b
4r}
==
!!!AGN: Liebes - Lied, Leid, Klage
!!!ONB: ESAC (Essen Associative Code) Database: BOEHME
!!!AMT: simple quadruple
!!!AIN: vox
!!!EED: Helmut Schaffrath
!!!EEV: 1.0
*-
